svg/fluentui-system-icons/ic_fluent_briefcase_48_regular.svg

<svg width="48" height="48" viewBox="0 0 48 48" fill="none" xmlns="http://www.w3.org/2000/svg">
<path d="M16 12V8.25C16 5.90279 17.9028 4 20.25 4H27.75C30.0972 4 32 5.90279 32 8.25V12H35.75C39.2018 12 42 14.7982 42 18.25V33.75C42 37.2018 39.2018 40 35.75 40H12.25C8.79822 40 6 37.2018 6 33.75V18.25C6 14.7982 8.79822 12 12.25 12H16ZM18.5 8.25V12H29.5V8.25C29.5 7.2835 28.7165 6.5 27.75 6.5H20.25C19.2835 6.5 18.5 7.2835 18.5 8.25ZM39.5 18.25C39.5 16.1789 37.8211 14.5 35.75 14.5H12.25C10.1789 14.5 8.5 16.1789 8.5 18.25V21.75C8.5 23.8211 10.1789 25.5 12.25 25.5H20V25C20 23.8954 20.8954 23 22 23H26C27.1046 23 28 23.8954 28 25V25.5H35.75C37.8211 25.5 39.5 23.8211 39.5 21.75V18.25ZM12.25 28C10.843 28 9.54458 27.5351 8.5 26.7505V33.75C8.5 35.8211 10.1789 37.5 12.25 37.5H35.75C37.8211 37.5 39.5 35.8211 39.5 33.75V26.7505C38.4554 27.5351 37.157 28 35.75 28H28V29C28 30.1046 27.1046 31 26 31H22C20.8954 31 20 30.1046 20 29V28H12.25Z" fill="#212121"/>
</svg>

<svg xmlns="http://www.w3.org/2000/svg" width="48" height="48"><path d="M16 12V8.25A4.25 4.25 0 0 1 20.25 4h7.5A4.25 4.25 0 0 1 32 8.25V12h3.75A6.25 6.25 0 0 1 42 18.25v15.5A6.25 6.25 0 0 1 35.75 40h-23.5A6.25 6.25 0 0 1 6 33.75v-15.5A6.25 6.25 0 0 1 12.25 12H16Zm2.5-3.75V12h11V8.25a1.75 1.75 0 0 0-1.75-1.75h-7.5a1.75 1.75 0 0 0-1.75 1.75Zm21 10a3.75 3.75 0 0 0-3.75-3.75h-23.5a3.75 3.75 0 0 0-3.75 3.75v3.5a3.75 3.75 0 0 0 3.75 3.75H20V25a2 2 0 0 1 2-2h4a2 2 0 0 1 2 2v.5h7.75a3.75 3.75 0 0 0 3.75-3.75v-3.5ZM12.25 28a6.222 6.222 0 0 1-3.75-1.25v7a3.75 3.75 0 0 0 3.75 3.75h23.5a3.75 3.75 0 0 0 3.75-3.75v-7A6.222 6.222 0 0 1 35.75 28H28v1a2 2 0 0 1-2 2h-4a2 2 0 0 1-2-2v-1h-7.75Z"/></svg>
